X:1
T:Music of Spey  "RPBand"
M:C
L:1/8
Q:80
C:
S:4/4 March
K:HP
[| A|
{g}f2{gef}ed{g}A3{GAG}A|
{gBd}BA{g}B/2d3/2{e}A2{g}Bc|
{Gdc}d2{gdc}d2{g}d2{g}cd|  !
{gef}e4{ag}a3g|
{a}f2{gef}ed{g}A3{GAG}A|
{gBd}BA{g}B/2d3/2{e}A2{g}Bc|  !
{Gdc}d2{gdc}d2{gef}e2{ag}a2|
{Gdc}d4{gdc}d3|
A|  !
{gf}g2{f}gf{gef}e3A|
{ag}a2{g}ag{afg}f3{e}f|
{gef}e2{Gdc}d2{gf}g2f2|  !
{gfg}f4{gef}e2ag|
{a}f2{gef}ed{g}A3{GAG}A|
{gBd}BA{g}B/2d3/2{e}A2{g}Bc|  !
{Gdc}d2{gdc}d2{gef}e2{ag}a2|
{Gdc}d4{gdc}d4|]

